src/Pure/16/symbolic/actions/media-playlist-shuffle-symbolic.svg

<?xml version="1.0" encoding="UTF-8" standalone="no"?>
<svg
   version="1.1"
   viewBox="0 0 16 16"
   id="svg2"
   sodipodi:docname="media-playlist-shuffle-symbolic.svg"
   inkscape:version="1.4.2 (ebf0e940d0, 2025-05-08)"
   xmlns:inkscape="http://www.inkscape.org/namespaces/inkscape"
   xmlns:sodipodi="http://sodipodi.sourceforge.net/DTD/sodipodi-0.dtd"
   xmlns="http://www.w3.org/2000/svg"
   xmlns:svg="http://www.w3.org/2000/svg">
  <sodipodi:namedview
     id="namedview2"
     pagecolor="#ffffff"
     bordercolor="#000000"
     borderopacity="0.25"
     inkscape:showpageshadow="2"
     inkscape:pageopacity="0.0"
     inkscape:pagecheckerboard="0"
     inkscape:deskcolor="#d1d1d1"
     inkscape:zoom="49.6875"
     inkscape:cx="8"
     inkscape:cy="8"
     inkscape:window-width="1920"
     inkscape:window-height="1010"
     inkscape:window-x="0"
     inkscape:window-y="0"
     inkscape:window-maximized="1"
     inkscape:current-layer="svg2" />
  <defs
     id="defs1">
    <style
       id="current-color-scheme"
       type="text/css">.ColorScheme-Text {
        color:#363636;
      }</style>
  </defs>
  <path
     id="path1"
     class="ColorScheme-Text"
     style="fill:currentColor"
     d="M 1.7070312 1 L 1 1.7070312 L 6.5859375 7.2929688 L 7.2929688 6.5859375 L 1.7070312 1 z M 10 1 L 10 2 L 13.292969 2 L 1 14.292969 L 1.7070312 15 L 14 2.7070312 L 14 6 L 15 6 L 15 1 L 10 1 z M 9.4140625 8.7070312 L 8.7070312 9.4140625 L 13.292969 14 L 10 14 L 10 15 L 14 15 L 15 15 L 15 14 L 15 10 L 14 10 L 14 13.292969 L 9.4140625 8.7070312 z " />
</svg>

<svg version="1.1" viewBox="0 0 16 16" xmlns="http://www.w3.org/2000/svg">
 <defs>
  <style id="current-color-scheme" type="text/css">.ColorScheme-Text {
        color:#363636;
      }</style>
 </defs>
 <path d="m1.707 1-0.70703 0.70703 5.5859 5.5859 0.70703-0.70703-5.5859-5.5859zm7.707 7.707-0.70703 0.70703 4.5859 4.5859h-3.293v1h4 1v-1-4h-1v3.293l-4.5859-4.5859z" fill="#363636"/>
 <path d="m1 14.293 12.293-12.293h-3.293v-1h5v5h-1v-3.293l-12.293 12.293z" fill="#363636"/>
</svg>
